16x16/mimetypes/application-x-virtualbox-hdd.svg

<svg xmlns="http://www.w3.org/2000/svg" width="16" height="16" version="1">
 <path style="fill:#9052ff" d="M 2.8125,0 C 2.362375,0 2,0.3568 2,0.8 V 15.2 C 2,15.6432 2.362375,16 2.8125,16 h 11.375 C 14.637625,16 15,15.6432 15,15.2 V 5 L 11,4 10,0 Z"/>
 <path style="fill:#ac7cf5" d="M 10,0 V 4.1666667 C 10,4.6269167 10.373095,5 10.833333,5 H 15 Z"/>
 <path style="fill:#f4f4f7" d="M 8.09375,5.6 6.0625,12 4.8120625,8 H 2 V 9 H 4.0564375 L 6.0625,14.6 8.09375,8.4 9.3125,12.2 10.9375,7.8 12.15625,12 H 15 V 11 H 12.96875 L 10.9375,6 9.3125,9.2 Z"/>
</svg>

<svg xmlns="http://www.w3.org/2000/svg" width="16" height="16" version="1"><path style="fill:#9052ff" d="M2.813 0A.805.805 0 0 0 2 .8v14.4c0 .443.362.8.813.8h11.374c.45 0 .813-.357.813-.8V5l-4-1-1-4z"/><path style="fill:#ac7cf5" d="M10 0v4.167c0 .46.373.833.833.833H15z"/><path style="fill:#f4f4f7" d="M8.094 5.6 6.063 12l-1.25-4H2v1h2.056l2.006 5.6 2.032-6.2 1.219 3.8 1.624-4.4 1.22 4.2H15v-1h-2.031l-2.031-5-1.626 3.2z"/></svg>
